X: 1
T: Huntsmans' Hornpipe
T: Douglas Hornpipe
B: Ryan's Mammoth Collection, arr. T. Traub 2-10-04
B: Athole Collection ("Douglas Hornpipe")
R: reel
M: 4/4
L: 1/8
K: C
GE \
| "C"C2c2 c2Bc | "G"dBGB "C"c2cd | "C"ecec "Dm"fdfd | "C"gece "G"dBGE |
| "C"C2c2 c2Bc | "G"dBGB "Am"c2Bc | "F"dagf "G"edcB | "C"c2c2 c2 :|
|: ef \
| "C"gfed cBAG | "F"A2F2 F2fg | "Dm"agfe "(D)"dcBA | "G"B2G2 G2ef |
| "C"gege "F"fafa | "C"gege "F"fafa | "C"ge"F"af "G" edcB | "C"c2c2 c2 :|
